symbols/web/6k_plus/materialsymbolssharp/6k_plus_wght500gradN25fill1_20px.svg

<svg xmlns="http://www.w3.org/2000/svg" height="20" width="20"><path d="M13.646 11.604h.833v-1.208h1.125v-.792h-1.125V8.396h-.833v1.208h-1.208v.792h1.208Zm-4.375.813h1.208v-1.875l1.459 1.875h1.458L11.5 9.979l1.896-2.417h-1.458l-1.459 1.896V7.562H9.271ZM6.417 9.604v-.812h2.021v-1.23h-3.25v4.855h3.25V9.604Zm0 2.021v-1.229h.812v1.229Zm-3.896 5.854V2.521h14.958v14.958Z"/></svg>

<svg xmlns="http://www.w3.org/2000/svg" height="20" width="20"><path d="M13.646 11.604H14.479V10.396H15.604V9.604H14.479V8.396H13.646V9.604H12.438V10.396H13.646ZM9.271 12.417H10.479V10.542L11.938 12.417H13.396L11.5 9.979L13.396 7.562H11.938L10.479 9.458V7.562H9.271ZM6.417 9.604V8.792H8.438V7.562H5.188V12.417H8.438V9.604ZM6.417 11.625V10.396H7.229V11.625ZM2.521 17.479V2.521H17.479V17.479Z"/></svg>
